X: 17492
T: Hills Of Coore, The
R: hornpipe
M: 4/4
K: Adorian
|:e2AB A>G E2|cd ed/e/ ged2|egab gf/e/dB|cABG AG~f2|
e2A2 AG E2|cd ed/e/ ged2|egab gf/e/dB|1 DEGB A2~f2:|2 DEGB A2~a2||
|:ae a/b/c'/b/ ~a2a2|gdga gedB|dgab gf/e/dB|cBAB AG~f2|
e2A2 AG E2|cd ed/e/ gedB|dgab gf/e/dB|1 DEGB A2~a2:|2 DEGB A2~f2||

